pix_plugins/mod/questionnaire/icon.svg

<?xml version="1.0" encoding="utf-8"?>
<!-- Generator: Adobe Illustrator 21.1.0, SVG Export Plug-In . SVG Version: 6.00 Build 0)  -->
<svg version="1.1"
	 id="svg2" inkscape:version="0.91 r13725" sodipodi:docname="icon.svg" xmlns:cc="http://creativecommons.org/ns#" xmlns:dc="http://purl.org/dc/elements/1.1/" xmlns:inkscape="http://www.inkscape.org/namespaces/inkscape" xmlns:rdf="http://www.w3.org/1999/02/22-rdf-syntax-ns#" xmlns:sodipodi="http://sodipodi.sourceforge.net/DTD/sodipodi-0.dtd" xmlns:svg="http://www.w3.org/2000/svg"
	 xmlns="http://www.w3.org/2000/svg" xmlns:xlink="http://www.w3.org/1999/xlink" x="0px" y="0px" viewBox="0 0 48 48"
	 style="enable-background:new 0 0 48 48;" xml:space="preserve">
<style type="text/css">
	.st0{fill:none;}
	.st1{fill:#41A0E0;}
</style>
<sodipodi:namedview  bordercolor="#666666" borderopacity="1" gridtolerance="10" guidetolerance="10" id="namedview8" inkscape:current-layer="svg2" inkscape:cx="-47.898305" inkscape:cy="24" inkscape:pageopacity="0" inkscape:pageshadow="2" inkscape:window-height="990" inkscape:window-maximized="0" inkscape:window-width="1617" inkscape:window-x="10" inkscape:window-y="34" inkscape:zoom="4.9166667" objecttolerance="10" pagecolor="#ffffff" showgrid="false">
	</sodipodi:namedview>
<path id="path4" class="st0" d="M0,0h48v48H0V0z"/>
<path id="path6" inkscape:connector-curvature="0" class="st1" d="M19,33.3l3.7,3.7l13-13l-13-13L19,14.7l6.7,6.7H0.6v5.2h25.2
	C25.7,26.6,19,33.3,19,33.3z M42.2,0.7H5.8C2.9,0.7,0.6,3,0.6,5.9v10.4h5.2V5.9h36.5v36.3H5.8V31.8H0.6v10.4c0,2.9,2.3,5.2,5.2,5.2
	h36.5c2.9,0,5.2-2.3,5.2-5.2V5.9C47.4,3,45.1,0.7,42.2,0.7z"/>
</svg>

<?xml version="1.0" encoding="UTF-8" standalone="no"?>
<!-- Generator: Adobe Illustrator 21.1.0, SVG Export Plug-In . SVG Version: 6.00 Build 0)  -->

<svg
   xmlns:dc="http://purl.org/dc/elements/1.1/"
   xmlns:cc="http://creativecommons.org/ns#"
   xmlns:rdf="http://www.w3.org/1999/02/22-rdf-syntax-ns#"
   xmlns:svg="http://www.w3.org/2000/svg"
   xmlns="http://www.w3.org/2000/svg"
   xmlns:sodipodi="http://sodipodi.sourceforge.net/DTD/sodipodi-0.dtd"
   xmlns:inkscape="http://www.inkscape.org/namespaces/inkscape"
   version="1.1"
   id="svg2"
   inkscape:version="0.92.1 r15371"
   sodipodi:docname="icon.svg"
   x="0px"
   y="0px"
   viewBox="0 0 48 48"
   xml:space="preserve"
   width="51.200001"
   height="51.200001"><metadata
     id="metadata10"><rdf:RDF><cc:Work
         rdf:about=""><dc:format>image/svg+xml</dc:format><dc:type
           rdf:resource="http://purl.org/dc/dcmitype/StillImage" /></cc:Work></rdf:RDF></metadata><defs
     id="defs8" /><style
     type="text/css"
     id="style2">
	.st0{fill:none;}
	.st1{fill:#41A0E0;}
</style><sodipodi:namedview
     bordercolor="#666666"
     borderopacity="1"
     gridtolerance="10"
     guidetolerance="10"
     id="namedview8"
     inkscape:current-layer="svg2"
     inkscape:cx="-47.491526"
     inkscape:cy="24"
     inkscape:pageopacity="0"
     inkscape:pageshadow="2"
     inkscape:window-height="990"
     inkscape:window-maximized="0"
     inkscape:window-width="1617"
     inkscape:window-x="10"
     inkscape:window-y="34"
     inkscape:zoom="4.9166667"
     objecttolerance="10"
     pagecolor="#ffffff"
     showgrid="false" /><path
     id="path4"
     class="st0"
     d="M 0,0 H 48 V 48 H 0 Z"
     inkscape:connector-curvature="0"
     style="fill:none" /><path
     id="path6"
     inkscape:connector-curvature="0"
     class="st1"
     d="m 19,33.3 3.7,3.7 13,-13 -13,-13 -3.7,3.7 6.7,6.7 H 0.6 v 5.2 h 25.2 c -0.1,0 -6.8,6.7 -6.8,6.7 z M 42.2,0.7 H 5.8 C 2.9,0.7 0.6,3 0.6,5.9 V 16.3 H 5.8 V 5.9 H 42.3 V 42.2 H 5.8 V 31.8 H 0.6 v 10.4 c 0,2.9 2.3,5.2 5.2,5.2 h 36.5 c 2.9,0 5.2,-2.3 5.2,-5.2 V 5.9 C 47.4,3 45.1,0.7 42.2,0.7 Z"
     style="fill:#31b7d6" /></svg>
